packages/core/src/svgs/mkr.svg

<svg width="24" height="24" viewBox="0 0 24 24" fill="none" xmlns="http://www.w3.org/2000/svg">
<g clip-path="url(#clip0_31_13953)">
<path d="M0 0H24V24H0V0Z" fill="url(#paint0_linear_31_13953)"/>
<path d="M3.64147 6.91567C3.70628 6.87797 3.77984 6.85793 3.85482 6.85755C3.9298 6.85717 4.00357 6.87648 4.06875 6.91353L10.9246 10.8135C10.9904 10.8509 11.0452 10.9051 11.0833 10.9705C11.1213 11.0359 11.1414 11.1103 11.1415 11.186V16.7145C11.1415 16.8282 11.0963 16.9372 11.0159 17.0176C10.9356 17.0979 10.8266 17.1431 10.7129 17.1431C10.5992 17.1431 10.4902 17.0979 10.4098 17.0176C10.3295 16.9372 10.2843 16.8282 10.2843 16.7145V11.435L4.28561 8.0231V16.7145C4.28561 16.8282 4.24046 16.9372 4.16008 17.0176C4.07971 17.0979 3.9707 17.1431 3.85704 17.1431C3.74337 17.1431 3.63437 17.0979 3.55399 17.0176C3.47362 16.9372 3.42847 16.8282 3.42847 16.7145V7.28596C3.42849 7.211 3.44817 7.13736 3.48554 7.07238C3.52292 7.00741 3.57668 6.95337 3.64147 6.91567ZM20.3583 6.91567C20.2935 6.87789 20.2198 6.8578 20.1448 6.85743C20.0697 6.85705 19.9958 6.8764 19.9306 6.91353L13.0752 10.8135C13.0094 10.8509 12.9546 10.9051 12.9165 10.9705C12.8784 11.0359 12.8584 11.1103 12.8583 11.186V16.7145C12.8583 16.8282 12.9035 16.9372 12.9838 17.0176C13.0642 17.0979 13.1732 17.1431 13.2869 17.1431C13.4006 17.1431 13.5096 17.0979 13.5899 17.0176C13.6703 16.9372 13.7155 16.8282 13.7155 16.7145V11.435L19.7142 8.0231V16.7145C19.7142 16.8282 19.7593 16.9372 19.8397 17.0176C19.9201 17.0979 20.0291 17.1431 20.1428 17.1431C20.2564 17.1431 20.3654 17.0979 20.4458 17.0176C20.5262 16.9372 20.5713 16.8282 20.5713 16.7145V7.28596C20.5713 7.211 20.5516 7.13736 20.5142 7.07238C20.4769 7.00741 20.4231 6.95337 20.3583 6.91567Z" fill="white"/>
</g>
<defs>
<linearGradient id="paint0_linear_31_13953" x1="0" y1="12" x2="24" y2="12" gradientUnits="userSpaceOnUse">
<stop stop-color="#1BC4A3"/>
<stop offset="1" stop-color="#586979"/>
</linearGradient>
<clipPath id="clip0_31_13953">
<rect width="24" height="24" fill="white"/>
</clipPath>
</defs>
</svg>

<svg xmlns="http://www.w3.org/2000/svg" width="24" height="24" fill="none" viewBox="0 0 24 24"><g clip-path="url(#a)"><path fill="url(#b)" d="M0 0h24v24H0z"/><path fill="#fff" d="M3.641 6.916a.43.43 0 0 1 .428-.002l6.856 3.9a.43.43 0 0 1 .216.372v5.529a.429.429 0 0 1-.857 0v-5.28L4.286 8.023v8.692a.429.429 0 1 1-.858 0V7.286a.43.43 0 0 1 .213-.37m16.717 0a.43.43 0 0 0-.427-.002l-6.856 3.9a.43.43 0 0 0-.217.372v5.529a.429.429 0 0 0 .857 0v-5.28l6-3.412v8.692a.429.429 0 1 0 .856 0V7.286a.43.43 0 0 0-.213-.37"/></g><defs><linearGradient id="b" x1="0" x2="24" y1="12" y2="12" gradientUnits="userSpaceOnUse"><stop stop-color="#1BC4A3"/><stop offset="1" stop-color="#586979"/></linearGradient><clipPath id="a"><path fill="#fff" d="M0 0h24v24H0z"/></clipPath></defs></svg>
